X:18625
T:Wha'll Be King But Charlie
A:Cape Breton
S:Sandy MacIntyre
R:Jig
M:6/8
L:1/8
K:Am
B | c2 (uB A)GE | c2 (uB A)GE | c2 (uE E)DE | G3 GAB |
c2 d e2a | age ded | c2 (uA A)GE | A3 A2 :|
B | c2A c2d | eag ue2ud | c2Ac2d | e3 (uGAB) |
c2d e2a | age ded | c2 (uA A)GE | A3 A2 :|
 


